**harm	**harte	**silbe	**rhyme	**timestamp	**phrase	**leadinstrument	**kern
*M4/4	*M4/4	*	*	*	*	*	*
*	*	*	*	*	*	*	*
*	*	*	*	*	*	*	*
*a:	*a:	*	*	*a:	*a:	*a:	*a:
*	*	*	*	*	*	*	*
*	*	*	*	*	*	*	*
1r;	N	.	.	0	.	r	1r;
=1	=1	=1	=1	=1	=1	=1	=1
*>Letter>A	*>Letter>A	*>Letter>A	*>Letter>A	*>Letter>A	*>Letter>A	*>Letter>A	*>Letter>A
*>Label>Intro	*>Label>Intro	*>Label>Intro	*>Label>Intro	*>Label>Intro	*>Label>Intro	*>Label>Intro	*>Label>Intro
1i7	A:min7	.	.	1.422	newline	r	1A 1cc 1ee 1gg#
=2	=2	=2	=2	=2	=2	=2	=2
1i7	A:min7	.	.	3.604	.	r	1A 1cc 1ee 1gg#
=3	=3	=3	=3	=3	=3	=3	=3
1iv7	D:min7	.	.	5.786	.	r	1D 1f 1a 1cc
=4	=4	=4	=4	=4	=4	=4	=4
1iv7	D:min7	.	.	7.968	.	r	1D 1f 1a 1cc
=5	=5	=5	=5	=5	=5	=5	=5
1i7	A:min7	.	.	10.15	newline	r	1A 1cc 1ee 1gg#
=6	=6	=6	=6	=6	=6	=6	=6
1i7	A:min7	.	.	12.308	.	r	1A 1cc 1ee 1gg#
=7	=7	=7	=7	=7	=7	=7	=7
1iv7	D:min7	.	.	14.465	.	r	1D 1f 1a 1cc
=8	=8	=8	=8	=8	=8	=8	=8
1iv7	D:min7	.	.	16.623	.	r	1D 1f 1a 1cc
=9	=9	=9	=9	=9	=9	=9	=9
1i7	A:min7	.	.	18.781	newline	r	1A 1cc 1ee 1gg#
=10	=10	=10	=10	=10	=10	=10	=10
1i7	A:min7	.	.	20.965	.	r	1A 1cc 1ee 1gg#
=11	=11	=11	=11	=11	=11	=11	=11
1iv7	D:min7	.	.	23.15	.	r	1D 1f 1a 1cc
=12	=12	=12	=12	=12	=12	=12	=12
1iv7	D:min7	.	.	25.334	.	r	1D 1f 1a 1cc
.	.	.	.	.	.	.	.
.	.	I've	.	.	.	.	.
.	.	been	.	.	.	.	.
=13	=13	=13	=13	=13	=13	=13	=13
*>Letter>A2	*>Letter>A2	*>Letter>A2	*>Letter>A2	*>Letter>A2	*>Letter>A2	*>Letter>A2	*>Letter>A2
*>Label>Verse	*>Label>Verse	*>Label>Verse	*>Label>Verse	*>Label>Verse	*>Label>Verse	*>Label>Verse	*>Label>Verse
1i7	A:min7	hold-	.	27.518	newline	voice	1A 1cc 1ee 1gg#
.	.	-ing	.	.	.	.	.
.	.	out	.	.	.	.	.
.	.	so	.	.	.	.	.
.	.	long	A	.	.	.	.
.	.	I've	.	.	.	.	.
.	.	been	.	.	.	.	.
=14	=14	=14	=14	=14	=14	=14	=14
1i7	A:min7	sleep-	.	29.696	.	voice	1A 1cc 1ee 1gg#
.	.	-ing	.	.	.	.	.
.	.	all	.	.	.	.	.
.	.	a-	.	.	.	.	.
.	.	-lone	A	.	.	.	.
.	.	Lord	.	.	.	.	.
.	.	I	.	.	.	.	.
=15	=15	=15	=15	=15	=15	=15	=15
1iv7	D:min7	miss	B	31.875	.	voice	1D 1f 1a 1cc
.	.	you	C	.	.	.	.
.	.	.	.	.	.	.	.
=16	=16	=16	=16	=16	=16	=16	=16
1iv7	D:min7	.	.	34.053	.	voice	1D 1f 1a 1cc
.	.	.	.	.	.	.	.
.	.	I've	.	.	.	.	.
.	.	been	.	.	.	.	.
=17	=17	=17	=17	=17	=17	=17	=17
1i7	A:min7	hang-	.	36.232	newline	voice	1A 1cc 1ee 1gg#
.	.	-in	.	.	.	.	.
.	.	on	.	.	.	.	.
.	.	the	.	.	.	.	.
.	.	phone	A	.	.	.	.
.	.	I've	.	.	.	.	.
.	.	been	.	.	.	.	.
=18	=18	=18	=18	=18	=18	=18	=18
1i7	A:min7	sleep-	.	38.414	.	voice	1A 1cc 1ee 1gg#
.	.	-ing	.	.	.	.	.
.	.	all	.	.	.	.	.
.	.	a-	.	.	.	.	.
.	.	-lone	A	.	.	.	.
.	.	I	.	.	.	.	.
.	.	want	.	.	.	.	.
.	.	to	.	.	.	.	.
=19	=19	=19	=19	=19	=19	=19	=19
1iv7	D:min7	kiss	B	40.596	.	voice	1D 1f 1a 1cc
.	.	you	C	.	.	.	.
.	.	.	.	.	.	.	.
=20	=20	=20	=20	=20	=20	=20	=20
1iv7	D:min7	.	.	42.777	.	voice	1D 1f 1a 1cc
.	.	.	.	.	.	.	.
.	.	ooh	C	.	.	.	.
.	.	ooh	C	.	.	.	.
=21	=21	=21	=21	=21	=21	=21	=21
*>Letter>A2	*>Letter>A2	*>Letter>A2	*>Letter>A2	*>Letter>A2	*>Letter>A2	*>Letter>A2	*>Letter>A2
*>Label>Chorus	*>Label>Chorus	*>Label>Chorus	*>Label>Chorus	*>Label>Chorus	*>Label>Chorus	*>Label>Chorus	*>Label>Chorus
1i7	A:min7	ooh	C	44.959	newline	voice	1A 1cc 1ee 1gg#
.	.	ooh	C	.	.	.	.
.	.	ooh	C	.	.	.	.
.	.	_	.	.	.	.	.
.	.	_	.	.	.	.	.
.	.	.	.	.	.	.	.
.	.	ooh	C	.	.	.	.
.	.	ooh	C	.	.	.	.
=22	=22	=22	=22	=22	=22	=22	=22
1i7	A:min7	ooh	C	47.161	.	voice	1A 1cc 1ee 1gg#
.	.	ooh	C	.	.	.	.
.	.	ooh	C	.	.	.	.
.	.	_	.	.	.	.	.
.	.	_	.	.	.	.	.
.	.	.	.	.	.	.	.
.	.	ooh	C	.	.	.	.
.	.	ooh	C	.	.	.	.
=23	=23	=23	=23	=23	=23	=23	=23
1iv7	D:min7	ooh	C	49.362	.	voice	1D 1f 1a 1cc
.	.	ooh	C	.	.	.	.
.	.	.	.	.	.	.	.
=24	=24	=24	=24	=24	=24	=24	=24
1iv7	D:min7	.	.	51.563	.	voice	1D 1f 1a 1cc
.	.	.	.	.	.	.	.
.	.	ooh	c	.	.	.	.
.	.	ooh	c	.	.	.	.
=25	=25	=25	=25	=25	=25	=25	=25
1i7	A:min7	ooh	C	53.764	newline	voice	1A 1cc 1ee 1gg#
.	.	ooh	C	.	.	.	.
.	.	ooh	C	.	.	.	.
.	.	_	.	.	.	.	.
.	.	_	.	.	.	.	.
.	.	.	.	.	.	.	.
.	.	ooh	C	.	.	.	.
.	.	ooh	C	.	.	.	.
=26	=26	=26	=26	=26	=26	=26	=26
1i7	A:min7	ooh	C	55.948	.	voice	1A 1cc 1ee 1gg#
.	.	ooh	C	.	.	.	.
.	.	ooh	C	.	.	.	.
.	.	_	.	.	.	.	.
.	.	_	.	.	.	.	.
.	.	.	.	.	.	.	.
.	.	ooh	C	.	.	.	.
.	.	ooh	C	.	.	.	.
=27	=27	=27	=27	=27	=27	=27	=27
1iv7	D:min7	ooh	C	58.133	.	voice	1D 1f 1a 1cc
.	.	ooh	C	.	.	.	.
.	.	.	.	.	.	.	.
=28	=28	=28	=28	=28	=28	=28	=28
1iv7	D:min7	.	.	60.317	.	voice	1D 1f 1a 1cc
.	.	.	.	.	.	.	.
.	.	Well	.	.	.	.	.
.	.	I've	.	.	.	.	.
.	.	been	.	.	.	.	.
.	.	haun-	.	.	.	.	.
=29	=29	=29	=29	=29	=29	=29	=29
*>Letter>A2	*>Letter>A2	*>Letter>A2	*>Letter>A2	*>Letter>A2	*>Letter>A2	*>Letter>A2	*>Letter>A2
*>Label>Verse	*>Label>Verse	*>Label>Verse	*>Label>Verse	*>Label>Verse	*>Label>Verse	*>Label>Verse	*>Label>Verse
1i7	A:min7	_	.	62.501	newline	voice	1A 1cc 1ee 1gg#
.	.	-ted	.	.	.	.	.
.	.	in	.	.	.	.	.
.	.	my	.	.	.	.	.
.	.	sleep	D	.	.	.	.
.	.	_	.	.	.	.	.
.	.	You've	.	.	.	.	.
.	.	been	.	.	.	.	.
.	.	star-	.	.	.	.	.
=30	=30	=30	=30	=30	=30	=30	=30
1i7	A:min7	_	.	64.691	.	voice	1A 1cc 1ee 1gg#
.	.	-rin	.	.	.	.	.
.	.	in	.	.	.	.	.
.	.	my	.	.	.	.	.
.	.	dreams	D	.	.	.	.
.	.	_	.	.	.	.	.
.	.	Lord	.	.	.	.	.
.	.	I	.	.	.	.	.
=31	=31	=31	=31	=31	=31	=31	=31
1iv7	D:min7	.	.	66.881	.	voice	1D 1f 1a 1cc
.	.	miss	B	.	.	.	.
.	.	you	C	.	.	.	.
.	.	child	.	.	.	.	.
.	.	.	.	.	.	.	.
.	.	.	.	.	.	.	.
=32	=32	=32	=32	=32	=32	=32	=32
1iv7	D:min7	.	.	69.07	.	voice	1D 1f 1a 1cc
.	.	.	.	.	.	.	.
.	.	I've	.	.	.	.	.
.	.	been	.	.	.	.	.
=33	=33	=33	=33	=33	=33	=33	=33
1i7	A:min7	wait-	.	71.26	newline	voice	1A 1cc 1ee 1gg#
.	.	-in	.	.	.	.	.
.	.	in	.	.	.	.	.
.	.	the	.	.	.	.	.
.	.	hall	E	.	.	.	.
.	.	.	.	.	.	.	.
.	.	been	.	.	.	.	.
=34	=34	=34	=34	=34	=34	=34	=34
1i7	A:min7	wait-	.	73.44	.	voice	1A 1cc 1ee 1gg#
.	.	-in	.	.	.	.	.
.	.	on	.	.	.	.	.
.	.	your	.	.	.	.	.
.	.	call	E	.	.	.	.
.	.	the	.	.	.	.	.
.	.	phone	.	.	.	.	.
=35	=35	=35	=35	=35	=35	=35	=35
1iv7	D:min7	rings	.	75.621	.	voice	1D 1f 1a 1cc
.	.	.	.	.	.	.	.
.	.	.	.	.	.	.	.
.	.	.	.	.	.	.	.
.	.	it's	.	.	.	.	.
.	.	just	.	.	.	.	.
.	.	some	.	.	.	.	.
.	.	friends	.	.	.	.	.
=36	=36	=36	=36	=36	=36	=36	=36
1iv7	D:min7	_	.	77.801	.	voice	1D 1f 1a 1cc
.	.	of	.	.	.	.	.
.	.	mine	.	.	.	.	.
.	.	that	.	.	.	.	.
.	.	say	.	.	.	.	.
.	.	.	.	.	.	.	.
.	.	Hey	.	.	.	.	.
=37	=37	=37	=37	=37	=37	=37	=37
1i7	A:min7	.	.	79.981	newline	voice	1A 1cc 1ee 1gg#
.	.	what's	.	.	.	.	.
.	.	the	.	.	.	.	.
.	.	mat-	.	.	.	.	.
.	.	-ter	.	.	.	.	.
.	.	man	.	.	.	.	.
.	.	.	.	.	.	.	.
.	.	we're	.	.	.	.	.
.	.	gon-	.	.	.	.	.
.	.	-na	.	.	.	.	.
=38	=38	=38	=38	=38	=38	=38	=38
1i7	A:min7	_	.	82.165	.	voice	1A 1cc 1ee 1gg#
.	.	come	.	.	.	.	.
.	.	round	.	.	.	.	.
.	.	at	.	.	.	.	.
.	.	twelve	.	.	.	.	.
.	.	with	.	.	.	.	.
.	.	some	.	.	.	.	.
.	.	Puer-	.	.	.	.	.
.	.	-to	.	.	.	.	.
.	.	Ri-	.	.	.	.	.
.	.	-can	.	.	.	.	.
=39	=39	=39	=39	=39	=39	=39	=39
1iv7	D:min7	girls	.	84.348	.	voice	1D 1f 1a 1cc
.	.	that're	.	.	.	.	.
.	.	just	.	.	.	.	.
.	.	dyin	.	.	.	.	.
.	.	to	.	.	.	.	.
=40	=40	=40	=40	=40	=40	=40	=40
1iv7	D:min7	meet	.	86.532	.	voice	1D 1f 1a 1cc
.	.	you	C	.	.	.	.
.	.	.	.	.	.	.	.
.	.	We're	.	.	.	.	.
.	.	gon-	.	.	.	.	.
.	.	-na	.	.	.	.	.
=41	=41	=41	=41	=41	=41	=41	=41
1i7	A:min7	bring	.	88.716	newline	voice	1A 1cc 1ee 1gg#
.	.	a	.	.	.	.	.
.	.	case	.	.	.	.	.
.	.	of	.	.	.	.	.
.	.	wine	F	.	.	.	.
.	.	.	.	.	.	.	.
=42	=42	=42	=42	=42	=42	=42	=42
1i7	A:min7	.	.	90.914	.	voice	1A 1cc 1ee 1gg#
.	.	Hey	.	.	.	.	.
.	.	let's	.	.	.	.	.
.	.	go	.	.	.	.	.
.	.	and	.	.	.	.	.
.	.	mess	.	.	.	.	.
.	.	and	.	.	.	.	.
.	.	food	.	.	.	.	.
.	.	a-	.	.	.	.	.
.	.	-round	.	.	.	.	.
.	.	you	.	.	.	.	.
.	.	know	.	.	.	.	.
=43	=43	=43	=43	=43	=43	=43	=43
1iv7	D:min7	like	.	93.111	.	voice	1D 1f 1a 1cc
.	.	we	.	.	.	.	.
.	.	used	C	.	.	.	.
.	.	.	.	.	.	.	.
.	.	to	c	.	.	.	.
.	.	ahh	.	.	.	.	.
.	.	ahh	.	.	.	.	.
=44	=44	=44	=44	=44	=44	=44	=44
1iv7	D:min7	ahh	.	95.309	.	voice	1D 1f 1a 1cc
.	.	ahh	.	.	.	.	.
.	.	ahh	.	.	.	.	.
.	.	_	.	.	.	.	.
.	.	_	.	.	.	.	.
.	.	.	.	.	.	.	.
.	.	ahh	.	.	.	.	.
.	.	ahh	.	.	.	.	.
=45	=45	=45	=45	=45	=45	=45	=45
*>Letter>A2	*>Letter>A2	*>Letter>A2	*>Letter>A2	*>Letter>A2	*>Letter>A2	*>Letter>A2	*>Letter>A2
*>Label>Chorus	*>Label>Chorus	*>Label>Chorus	*>Label>Chorus	*>Label>Chorus	*>Label>Chorus	*>Label>Chorus	*>Label>Chorus
1i7	A:min7	ahh	.	97.507	newline	voice	1A 1cc 1ee 1gg#
.	.	ahh	.	.	.	.	.
.	.	ahh	.	.	.	.	.
.	.	_	.	.	.	.	.
.	.	_	.	.	.	.	.
.	.	.	.	.	.	.	.
.	.	ahh	.	.	.	.	.
.	.	ahh	.	.	.	.	.
=46	=46	=46	=46	=46	=46	=46	=46
1i7	A:min7	ahh	.	99.707	.	voice	1A 1cc 1ee 1gg#
.	.	ahh	.	.	.	.	.
.	.	.	.	.	.	.	.
.	.	.	.	.	.	.	.
=47	=47	=47	=47	=47	=47	=47	=47
1iv7	D:min7	.	.	101.908	.	voice	1D 1f 1a 1cc
=48	=48	=48	=48	=48	=48	=48	=48
1iv7	D:min7	.	.	104.108	.	voice	1D 1f 1a 1cc
.	.	.	.	.	.	.	.
.	.	ahh	.	.	.	.	.
.	.	ahh	.	.	.	.	.
=49	=49	=49	=49	=49	=49	=49	=49
1i7	A:min7	ahh	.	106.308	newline	voice	1A 1cc 1ee 1gg#
.	.	ahh	.	.	.	.	.
.	.	ahh	.	.	.	.	.
.	.	_	.	.	.	.	.
.	.	_	.	.	.	.	.
.	.	.	.	.	.	.	.
.	.	ahh	.	.	.	.	.
.	.	ahh	.	.	.	.	.
=50	=50	=50	=50	=50	=50	=50	=50
1i7	A:min7	ahh	.	108.495	.	voice	1A 1cc 1ee 1gg#
.	.	ahh	.	.	.	.	.
.	.	ahh	.	.	.	.	.
.	.	_	.	.	.	.	.
.	.	_	.	.	.	.	.
.	.	.	.	.	.	.	.
.	.	ahh	.	.	.	.	.
.	.	ahh	.	.	.	.	.
=51	=51	=51	=51	=51	=51	=51	=51
1iv7	D:min7	ahh	.	110.681	.	voice	1D 1f 1a 1cc
.	.	ahh	.	.	.	.	.
.	.	.	.	.	.	.	.
.	.	.	.	.	.	.	.
=52	=52	=52	=52	=52	=52	=52	=52
1iv7	D:min7	.	.	112.867	.	voice	1D 1f 1a 1cc
=53	=53	=53	=53	=53	=53	=53	=53
*>Letter>B	*>Letter>B	*>Letter>B	*>Letter>B	*>Letter>B	*>Letter>B	*>Letter>B	*>Letter>B
*>Label>Bridge	*>Label>Bridge	*>Label>Bridge	*>Label>Bridge	*>Label>Bridge	*>Label>Bridge	*>Label>Bridge	*>Label>Bridge
1-VI	F:maj	Oh	.	115.053	newline	voice	1F- 1a- 1cc-
.	.	_	.	.	.	.	.
.	.	.	.	.	.	.	.
=54	=54	=54	=54	=54	=54	=54	=54
1v7	E:min7	ev-	.	117.217	.	voice	1E 1g 1b 1dd
.	.	-ery-	.	.	.	.	.
.	.	-bo-	.	.	.	.	.
.	.	-dy	.	.	.	.	.
.	.	waits	.	.	.	.	.
.	.	so	.	.	.	.	.
.	.	long	E	.	.	.	.
=55	=55	=55	=55	=55	=55	=55	=55
1iv7	D:min7	_	.	119.381	.	voice	1D 1f 1a 1cc
.	.	_	.	.	.	.	.
.	.	_	.	.	.	.	.
.	.	.	.	.	.	.	.
=56	=56	=56	=56	=56	=56	=56	=56
1iv7	D:min7	.	.	121.545	.	voice	1D 1f 1a 1cc
=57	=57	=57	=57	=57	=57	=57	=57
1-VI	F:maj	Oh	.	123.709	newline	voice	1F- 1a- 1cc-
.	.	_	.	.	.	.	.
.	.	_	.	.	.	.	.
.	.	.	.	.	.	.	.
.	.	Ba-	.	.	.	.	.
=58	=58	=58	=58	=58	=58	=58	=58
1v7	E:min7	_	.	125.881	.	voice	1E 1g 1b 1dd
.	.	-by	.	.	.	.	.
.	.	why	.	.	.	.	.
.	.	you	.	.	.	.	.
.	.	wait	.	.	.	.	.
.	.	so	.	.	.	.	.
.	.	long	E	.	.	.	.
=59	=59	=59	=59	=59	=59	=59	=59
1iv7	D:min7	_	.	128.054	.	voice	1D 1f 1a 1cc
.	.	_	.	.	.	.	.
.	.	_	.	.	.	.	.
.	.	.	.	.	.	.	.
.	.	won't	.	.	.	.	.
.	.	you	.	.	.	.	.
=60	=60	=60	=60	=60	=60	=60	=60
1V7	E:7	.	.	130.227	.	voice	1E 1g# 1b 1dd
.	.	come	.	.	.	.	.
.	.	on	E	.	.	.	.
.	.	.	.	.	.	.	.
.	.	come	.	.	.	.	.
.	.	on	E	.	.	.	.
.	.	.	.	.	.	.	.
=61	=61	=61	=61	=61	=61	=61	=61
*>Letter>A3	*>Letter>A3	*>Letter>A3	*>Letter>A3	*>Letter>A3	*>Letter>A3	*>Letter>A3	*>Letter>A3
*>Label>Interlude	*>Label>Interlude	*>Label>Interlude	*>Label>Interlude	*>Label>Interlude	*>Label>Interlude	*>Label>Interlude	*>Label>Interlude
1i7	A:min7	.	.	132.399	newline	voice	1A 1cc 1ee 1gg#
=62	=62	=62	=62	=62	=62	=62	=62
1i7	A:min7	.	.	134.622	.	voice	1A 1cc 1ee 1gg#
.	.	Ah	.	.	.	.	.
.	.	_	.	.	.	.	.
=63	=63	=63	=63	=63	=63	=63	=63
1iv7	D:min7	.	.	136.845	.	voice	1D 1f 1a 1cc
=64	=64	=64	=64	=64	=64	=64	=64
1iv7	D:min7	.	.	139.068	.	voice	1D 1f 1a 1cc
.	.	.	.	.	.	.	.
.	.	I've	.	.	.	.	.
.	.	been	.	.	.	.	.
=65	=65	=65	=65	=65	=65	=65	=65
*>Letter>A	*>Letter>A	*>Letter>A	*>Letter>A	*>Letter>A	*>Letter>A	*>Letter>A	*>Letter>A
*>Label>Verse	*>Label>Verse	*>Label>Verse	*>Label>Verse	*>Label>Verse	*>Label>Verse	*>Label>Verse	*>Label>Verse
1i7	A:min7	walk-	.	141.292	newline	voice	1A 1cc 1ee 1gg#
.	.	-in	.	.	.	.	.
.	.	in	.	.	.	.	.
.	.	Cent-	.	.	.	.	.
.	.	-ral	.	.	.	.	.
.	.	park	G	.	.	.	.
.	.	.	.	.	.	.	.
=66	=66	=66	=66	=66	=66	=66	=66
1i7	A:min7	Sing-	.	143.476	.	voice	1A 1cc 1ee 1gg#
.	.	-in	.	.	.	.	.
.	.	af-	.	.	.	.	.
.	.	-ter	.	.	.	.	.
.	.	dark	G	.	.	.	.
.	.	_	.	.	.	.	.
.	.	.	.	.	.	.	.
.	.	peo-	.	.	.	.	.
.	.	-ple	.	.	.	.	.
.	.	think	.	.	.	.	.
=67	=67	=67	=67	=67	=67	=67	=67
1iv7	D:min7	I'm	.	145.66	.	voice	1D 1f 1a 1cc
.	.	.	.	.	.	.	.
.	.	cra-	.	.	.	.	.
.	.	-zy	d	.	.	.	.
=68	=68	=68	=68	=68	=68	=68	=68
1iv7	D:min7	_	.	147.844	.	voice	1D 1f 1a 1cc
.	.	.	.	.	.	.	.
.	.	.	.	.	.	.	.
=69	=69	=69	=69	=69	=69	=69	=69
1i7	A:min7	Stumb-	.	150.029	newline	voice	1A 1cc 1ee 1gg#
.	.	-lin	.	.	.	.	.
.	.	on	.	.	.	.	.
.	.	my	.	.	.	.	.
.	.	feet	D	.	.	.	.
.	.	.	.	.	.	.	.
.	.	.	.	.	.	.	.
=70	=70	=70	=70	=70	=70	=70	=70
1i7	A:min7	shuff-	.	152.235	.	voice	1A 1cc 1ee 1gg#
.	.	-ling	.	.	.	.	.
.	.	through	.	.	.	.	.
.	.	the	.	.	.	.	.
.	.	street	D	.	.	.	.
.	.	.	.	.	.	.	.
.	.	.	.	.	.	.	.
=71	=71	=71	=71	=71	=71	=71	=71
1iv7	D:min7	ask-	.	154.442	.	voice	1D 1f 1a 1cc
.	.	-in	.	.	.	.	.
.	.	peo-	.	.	.	.	.
.	.	-ple	.	.	.	.	.
.	.	.	.	.	.	.	.
=72	=72	=72	=72	=72	=72	=72	=72
1iv7	D:min7	what's	.	156.649	.	voice	1D 1f 1a 1cc
.	.	the	.	.	.	.	.
.	.	mat-	.	.	.	.	.
.	.	-ter	.	.	.	.	.
.	.	with	.	.	.	.	.
.	.	you	.	.	.	.	.
.	.	boy	.	.	.	.	.
.	.	.	.	.	.	.	.
=73	=73	=73	=73	=73	=73	=73	=73
1i7	A:min7	.	.	158.856	newline	voice	1A 1cc 1ee 1gg#
.	.	.	.	.	.	.	.
.	.	Some-	.	.	.	.	.
.	.	-times	.	.	.	.	.
=74	=74	=74	=74	=74	=74	=74	=74
1i7	A:min7	I	.	161.051	.	voice	1A 1cc 1ee 1gg#
.	.	wan-	.	.	.	.	.
.	.	-na	.	.	.	.	.
.	.	say	.	.	.	.	.
.	.	.	.	.	.	.	.
.	.	to	.	.	.	.	.
.	.	.	.	.	.	.	.
.	.	to	.	.	.	.	.
.	.	my-	.	.	.	.	.
=75	=75	=75	=75	=75	=75	=75	=75
1iv7	D:min7	-self	.	163.247	.	voice	1D 1f 1a 1cc
.	.	.	.	.	.	.	.
.	.	.	.	.	.	.	.
.	.	some-	.	.	.	.	.
=76	=76	=76	=76	=76	=76	=76	=76
1iv7	D:min7	-times	.	165.442	.	voice	1D 1f 1a 1cc
.	.	I	.	.	.	.	.
.	.	say	.	.	.	.	.
.	.	.	.	.	.	.	.
.	.	Ooh	C	.	.	.	.
=77	=77	=77	=77	=77	=77	=77	=77
*>Letter>A2	*>Letter>A2	*>Letter>A2	*>Letter>A2	*>Letter>A2	*>Letter>A2	*>Letter>A2	*>Letter>A2
*>Label>Chorus	*>Label>Chorus	*>Label>Chorus	*>Label>Chorus	*>Label>Chorus	*>Label>Chorus	*>Label>Chorus	*>Label>Chorus
1i7	A:min7	ooh	C	167.637	newline	voice	1A 1cc 1ee 1gg#
.	.	ooh	C	.	.	.	.
.	.	ooh	C	.	.	.	.
.	.	_	.	.	.	.	.
.	.	_	.	.	.	.	.
.	.	.	.	.	.	.	.
.	.	ooh	C	.	.	.	.
.	.	ooh	C	.	.	.	.
=78	=78	=78	=78	=78	=78	=78	=78
1i7	A:min7	ooh	C	169.797	.	voice	1A 1cc 1ee 1gg#
.	.	ooh	C	.	.	.	.
.	.	ooh	C	.	.	.	.
.	.	_	.	.	.	.	.
.	.	_	.	.	.	.	.
.	.	.	.	.	.	.	.
.	.	ooh	C	.	.	.	.
.	.	ooh	C	.	.	.	.
=79	=79	=79	=79	=79	=79	=79	=79
1iv7	D:min7	ooh	C	171.957	.	voice	1D 1f 1a 1cc
.	.	ooh	C	.	.	.	.
.	.	.	.	.	.	.	.
=80	=80	=80	=80	=80	=80	=80	=80
1iv7	D:min7	.	.	174.117	.	voice	1D 1f 1a 1cc
.	.	.	.	.	.	.	.
.	.	ooh	C	.	.	.	.
.	.	ooh	C	.	.	.	.
=81	=81	=81	=81	=81	=81	=81	=81
1i7	A:min7	ooh	C	176.277	newline	voice	1A 1cc 1ee 1gg#
.	.	ooh	C	.	.	.	.
.	.	ooh	C	.	.	.	.
.	.	_	.	.	.	.	.
.	.	_	.	.	.	.	.
.	.	.	.	.	.	.	.
.	.	ooh	C	.	.	.	.
.	.	ooh	C	.	.	.	.
=82	=82	=82	=82	=82	=82	=82	=82
1i7	A:min7	ooh	C	178.474	.	voice	1A 1cc 1ee 1gg#
.	.	ooh	C	.	.	.	.
.	.	ooh	C	.	.	.	.
.	.	_	.	.	.	.	.
.	.	_	.	.	.	.	.
.	.	.	.	.	.	.	.
.	.	I	.	.	.	.	.
.	.	won't	.	.	.	.	.
=83	=83	=83	=83	=83	=83	=83	=83
1iv7	D:min7	miss	B	180.671	.	voice	1D 1f 1a 1cc
.	.	you	C	.	.	.	.
.	.	child	.	.	.	.	.
.	.	.	.	.	.	.	.
=84	=84	=84	=84	=84	=84	=84	=84
1iv7	D:min7	.	.	182.869	.	voice	1D 1f 1a 1cc
=85	=85	=85	=85	=85	=85	=85	=85
*>Letter>A2	*>Letter>A2	*>Letter>A2	*>Letter>A2	*>Letter>A2	*>Letter>A2	*>Letter>A2	*>Letter>A2
*>Label>Solo	*>Label>Solo	*>Label>Solo	*>Label>Solo	*>Label>Solo	*>Label>Solo	*>Label>Solo	*>Label>Solo
1i7	A:min7	.	.	185.066	newline	saxophone	1A 1cc 1ee 1gg#
=86	=86	=86	=86	=86	=86	=86	=86
1i7	A:min7	.	.	187.263	.	saxophone	1A 1cc 1ee 1gg#
=87	=87	=87	=87	=87	=87	=87	=87
1iv7	D:min7	.	.	189.459	.	saxophone	1D 1f 1a 1cc
=88	=88	=88	=88	=88	=88	=88	=88
1iv7	D:min7	.	.	191.655	.	saxophone	1D 1f 1a 1cc
=89	=89	=89	=89	=89	=89	=89	=89
1i7	A:min7	.	.	193.852	newline	saxophone	1A 1cc 1ee 1gg#
=90	=90	=90	=90	=90	=90	=90	=90
1i7	A:min7	.	.	196.05	.	saxophone	1A 1cc 1ee 1gg#
=91	=91	=91	=91	=91	=91	=91	=91
1iv7	D:min7	.	.	198.248	.	saxophone	1D 1f 1a 1cc
=92	=92	=92	=92	=92	=92	=92	=92
1iv7	D:min7	.	.	200.446	.	saxophone	1D 1f 1a 1cc
.	.	.	.	.	.	.	.
.	.	.	.	.	.	.	.
.	.	I	.	.	.	.	.
.	.	guess	.	.	.	.	.
.	.	I'm	.	.	.	.	.
.	.	ly-	.	.	.	.	.
=93	=93	=93	=93	=93	=93	=93	=93
*>Letter>A	*>Letter>A	*>Letter>A	*>Letter>A	*>Letter>A	*>Letter>A	*>Letter>A	*>Letter>A
*>Label>Verse	*>Label>Verse	*>Label>Verse	*>Label>Verse	*>Label>Verse	*>Label>Verse	*>Label>Verse	*>Label>Verse
1i7	A:min7	_	.	202.645	newline	voice	1A 1cc 1ee 1gg#
.	.	-ing	.	.	.	.	.
.	.	to	.	.	.	.	.
.	.	my-	.	.	.	.	.
.	.	-self	H	.	.	.	.
.	.	.	.	.	.	.	.
.	.	it's	.	.	.	.	.
.	.	just	.	.	.	.	.
.	.	you	C	.	.	.	.
=94	=94	=94	=94	=94	=94	=94	=94
1i7	A:min7	_	.	204.822	.	voice	1A 1cc 1ee 1gg#
.	.	and	.	.	.	.	.
.	.	no	.	.	.	.	.
.	.	one	.	.	.	.	.
.	.	else	H	.	.	.	.
.	.	_	.	.	.	.	.
.	.	Lord	.	.	.	.	.
.	.	_	.	.	.	.	.
.	.	I	.	.	.	.	.
=95	=95	=95	=95	=95	=95	=95	=95
1iv7	D:min7	won't	.	207	.	voice	1D 1f 1a 1cc
.	.	mis	B	.	.	.	.
.	.	you	C	.	.	.	.
.	.	_	.	.	.	.	.
.	.	child	I	.	.	.	.
.	.	_	.	.	.	.	.
.	.	.	.	.	.	.	.
.	.	.	.	.	.	.	.
=96	=96	=96	=96	=96	=96	=96	=96
1iv7	D:min7	.	.	209.178	.	voice	1D 1f 1a 1cc
.	.	.	.	.	.	.	.
.	.	you've	.	.	.	.	.
.	.	just	.	.	.	.	.
.	.	been	.	.	.	.	.
.	.	.	.	.	.	.	.
=97	=97	=97	=97	=97	=97	=97	=97
1i7	A:min7	blot-	.	211.356	newline	voice	1A 1cc 1ee 1gg#
.	.	-ting	.	.	.	.	.
.	.	out	.	.	.	.	.
.	.	_	.	.	.	.	.
.	.	my	.	.	.	.	.
.	.	mind	I	.	.	.	.
.	.	_	.	.	.	.	.
.	.	_	.	.	.	.	.
.	.	.	.	.	.	.	.
=98	=98	=98	=98	=98	=98	=98	=98
1i7	A:min7	Fool-	.	213.547	.	voice	1A 1cc 1ee 1gg#
.	.	-ing	.	.	.	.	.
.	.	on	.	.	.	.	.
.	.	_	.	.	.	.	.
.	.	my	.	.	.	.	.
.	.	time	I	.	.	.	.
.	.	_	.	.	.	.	.
.	.	_	.	.	.	.	.
.	.	_	.	.	.	.	.
.	.	no	.	.	.	.	.
.	.	I	.	.	.	.	.
=99	=99	=99	=99	=99	=99	=99	=99
1iv7	D:min7	won't	.	215.739	.	voice	1D 1f 1a 1cc
.	.	miss	.	.	.	.	.
.	.	you	.	.	.	.	.
.	.	ba-	.	.	.	.	.
.	.	-by	.	.	.	.	.
.	.	yeah	.	.	.	.	.
=100	=100	=100	=100	=100	=100	=100	=100
1iv7	D:min7	_	.	217.93	.	voice	1D 1f 1a 1cc
.	.	_	.	.	.	.	.
.	.	_	.	.	.	.	.
.	.	_	.	.	.	.	.
.	.	.	.	.	.	.	.
.	.	.	.	.	.	.	.
.	.	.	.	.	.	.	.
.	.	Lord	.	.	.	.	.
=101	=101	=101	=101	=101	=101	=101	=101
1i7	A:min7	_	.	220.122	newline	voice	1A 1cc 1ee 1gg#
.	.	I	.	.	.	.	.
.	.	miss	B	.	.	.	.
.	.	you	C	.	.	.	.
.	.	child	I	.	.	.	.
.	.	_	.	.	.	.	.
.	.	_	.	.	.	.	.
.	.	.	.	.	.	.	.
=102	=102	=102	=102	=102	=102	=102	=102
1i7	A:min7	.	.	222.282	.	voice	1A 1cc 1ee 1gg#
.	.	.	.	.	.	.	.
.	.	.	.	.	.	.	.
.	.	.	.	.	.	.	.
=103	=103	=103	=103	=103	=103	=103	=103
1iv7	D:min7	.	.	224.442	.	voice	1D 1f 1a 1cc
=104	=104	=104	=104	=104	=104	=104	=104
1iv7	D:min7	.	.	226.602	.	voice	1D 1f 1a 1cc
.	.	.	.	.	.	.	.
.	.	ahh	.	.	.	.	.
.	.	ahh	.	.	.	.	.
=105	=105	=105	=105	=105	=105	=105	=105
*>Letter>A	*>Letter>A	*>Letter>A	*>Letter>A	*>Letter>A	*>Letter>A	*>Letter>A	*>Letter>A
*>Label>Chorus	*>Label>Chorus	*>Label>Chorus	*>Label>Chorus	*>Label>Chorus	*>Label>Chorus	*>Label>Chorus	*>Label>Chorus
1i7	A:min7	ahh	.	228.762	newline	voice	1A 1cc 1ee 1gg#
.	.	ahh	.	.	.	.	.
.	.	ahh	.	.	.	.	.
.	.	_	.	.	.	.	.
.	.	_	.	.	.	.	.
.	.	.	.	.	.	.	.
.	.	ahh	.	.	.	.	.
.	.	ahh	.	.	.	.	.
=106	=106	=106	=106	=106	=106	=106	=106
1i7	A:min7	ahh	.	230.946	.	voice	1A 1cc 1ee 1gg#
.	.	ahh	.	.	.	.	.
.	.	ahh	.	.	.	.	.
.	.	_	.	.	.	.	.
.	.	_	.	.	.	.	.
.	.	.	.	.	.	.	.
.	.	ahh	.	.	.	.	.
.	.	ahh	.	.	.	.	.
=107	=107	=107	=107	=107	=107	=107	=107
1iv7	D:min7	ahh	.	233.129	.	voice	1D 1f 1a 1cc
.	.	ahh	.	.	.	.	.
.	.	.	.	.	.	.	.
.	.	.	.	.	.	.	.
=108	=108	=108	=108	=108	=108	=108	=108
1iv7	D:min7	.	.	235.312	.	voice	1D 1f 1a 1cc
=109	=109	=109	=109	=109	=109	=109	=109
1i7	A:min7	.	.	237.495	newline	voice	1A 1cc 1ee 1gg#
=110	=110	=110	=110	=110	=110	=110	=110
1i7	A:min7	.	.	239.678	.	voice	1A 1cc 1ee 1gg#
=111	=111	=111	=111	=111	=111	=111	=111
1iv7	D:min7	.	.	241.861	.	voice	1D 1f 1a 1cc
=112	=112	=112	=112	=112	=112	=112	=112
1iv7	D:min7	.	.	244.044	.	voice	1D 1f 1a 1cc
=113	=113	=113	=113	=113	=113	=113	=113
1i7	A:min7	.	.	246.227	newline	voice	1A 1cc 1ee 1gg#
=114	=114	=114	=114	=114	=114	=114	=114
1i7	A:min7	.	.	248.421	.	voice	1A 1cc 1ee 1gg#
=115	=115	=115	=115	=115	=115	=115	=115
1iv7	D:min7	.	.	250.614	.	voice	1D 1f 1a 1cc
=116	=116	=116	=116	=116	=116	=116	=116
1iv7	D:min7	.	.	252.807	.	voice	1D 1f 1a 1cc
=117	=117	=117	=117	=117	=117	=117	=117
*>Letter>A2	*>Letter>A2	*>Letter>A2	*>Letter>A2	*>Letter>A2	*>Letter>A2	*>Letter>A2	*>Letter>A2
*>Label>Solo	*>Label>Solo	*>Label>Solo	*>Label>Solo	*>Label>Solo	*>Label>Solo	*>Label>Solo	*>Label>Solo
1i7	A:min7	.	.	255.001	newline	keyboard	1A 1cc 1ee 1gg#
=118	=118	=118	=118	=118	=118	=118	=118
1i7	A:min7	.	.	257.196	.	keyboard	1A 1cc 1ee 1gg#
=119	=119	=119	=119	=119	=119	=119	=119
1iv7	D:min7	.	.	259.39	.	keyboard	1D 1f 1a 1cc
=120	=120	=120	=120	=120	=120	=120	=120
1iv7	D:min7	.	.	261.585	.	keyboard	1D 1f 1a 1cc
=121	=121	=121	=121	=121	=121	=121	=121
1i7	A:min7	.	.	263.78	newline	keyboard	1A 1cc 1ee 1gg#
=122	=122	=122	=122	=122	=122	=122	=122
1i7	A:min7	.	.	265.953	.	keyboard	1A 1cc 1ee 1gg#
=123	=123	=123	=123	=123	=123	=123	=123
1iv7	D:min7	.	.	268.125	.	keyboard	1D 1f 1a 1cc
=124	=124	=124	=124	=124	=124	=124	=124
1iv7	D:min7	.	.	270.298	.	keyboard	1D 1f 1a 1cc
=125	=125	=125	=125	=125	=125	=125	=125
*>Label>>Fadeout	*>Label>>Fadeout	*>Label>>Fadeout	*>Label>>Fadeout	*>Label>>Fadeout	*>Label>>Fadeout	*>Label>>Fadeout	*>Label>>Fadeout
1i7	A:min7	.	.	272.471	newline	keyboard	1A 1cc 1ee 1gg#
=126	=126	=126	=126	=126	=126	=126	=126
1i7	A:min7	.	.	274.65	.	keyboard	1A 1cc 1ee 1gg#
=127	=127	=127	=127	=127	=127	=127	=127
1iv7	D:min7	.	.	276.829	.	keyboard	1D 1f 1a 1cc
=128	=128	=128	=128	=128	=128	=128	=128
1iv7	D:min7	.	.	279.008	.	keyboard	1D 1f 1a 1cc
=129	=129	=129	=129	=129	=129	=129	=129
1i7	A:min7	.	.	281.187	newline	keyboard	1A 1cc 1ee 1gg#
=130	=130	=130	=130	=130	=130	=130	=130
1i7	A:min7	.	.	283.035	.	keyboard	1A 1cc 1ee 1gg#
=131	=131	=131	=131	=131	=131	=131	=131
1iv7	D:min7	.	.	284.883	.	keyboard	1D 1f 1a 1cc
=132	=132	=132	=132	=132	=132	=132	=132
1iv7	D:min7	.	.	286.731	.	keyboard	1D 1f 1a 1cc
1r;	N	.	.	288.579	.	r	1r;
*-	*-	*-	*-	*-	*-	*-	*-
!!!BillboardChartDate: 1978/07/29
!!!BillboardPeak: 1
!!!BillboardWeeksOnChart: 20
!!!COC: The Rolling Stones
!!!ENC: Nathaniel Condit-Schultz
!!!EST: Awating manual error checking and editing.
!!!OTL: Miss You
!!!RDF**harte: Chris Harte's syntax, used by MIREX
!!!RDF**harmony: **recip + pitch class of root + harmonic quality
!!!RDF**leadinstrument: original McGill primary instrumentation annotation
!!!RDF**phrase: newline = linebreak in original McGill transcription
!!!RDF**timestamp: McGill audio timestamp in seconds
!!!RDT: 2017/01/12/
!!!SampleActualRank: 3
!!!SampleID#: 0958
!!!SampleTargetRank: 3
!!!MBID: a4cfa060-a5e3-47a2-baf8-d52aeb975cf7
